X: 1
T: MOUNTAIN -- REEL
B: Ryan's Mammoth Collection of Fiddle Tunes
R: reel
M: 2/4
L: 1/16
Z: Contributed 20010523135358 by John Chambers jc:trillian.mit.edu
K: A
 vA2ed Bdef | =g2dg Bgdg | A2ed Bdef | =g2{a}gf gedB \
| A2ed Bdef | =g2dg Bgdg | Afed Bdef | gdBd cAA2 :|
|: a2ea caBf | =g2dg B=gc^g  | a2ea caBf | =gdBd cAA^g \
|  a2ea AaBf | =g2dg Bge^g | agef =gaba | gedB BAAa :|
